X:1
T:Love At The Endings
P:Reel
M:C|
L: 1/8
C:Ed Reavy/Arr. D. Angus MacDonald
D:A' Sireadh Sprs
K: Amix
|:c|ABce f2fa|ecc/c/c ecBc|ABce f2ec|B/B/BcA ~B3c|
ABce f2af|ecc/c/c ~e3f|~a3f efaf|ecBc A3:|
|:B|~c3B ABce|ecfc ecAB|~c3B Affc|ecAc B2AB|
~c3B Affc|ecc/c/c B2AB|cefg ~a3f|ecBc A3:|
